public/assets/kaartFront5.svg

<svg width="254" height="371" viewBox="0 0 254 371" fill="none" xmlns="http://www.w3.org/2000/svg">
<path d="M254 370.888H8.78746L0 0.418452L254 0V370.888Z" fill="#FEF1F0"/>
<path d="M27.477 11.8563L27.0586 18.8305L41.2859 17.8541L30.5457 43.1007L36.6829 44.9139L48.5391 16.8777L47.9812 11.7168L27.477 11.8563Z" fill="#F37880"/>
<path d="M235.309 359.032L235.728 352.058L221.64 353.034L232.241 327.788L226.103 325.975L214.387 354.011L214.805 359.172L235.309 359.032Z" fill="#F37880"/>
<path d="M114.381 81.5995L93.5984 112.844L72.6758 81.46L93.4589 50.0762L114.381 81.5995Z" fill="#F37880"/>
<path d="M114.381 188.025L93.5984 219.27L72.6758 187.886L93.4589 156.502L114.381 188.025Z" fill="#F37880"/>
<path d="M114.381 294.31L93.5984 325.555L72.6758 294.171L93.4589 262.787L114.381 294.31Z" fill="#F37880"/>
<path d="M150.648 134.743L130.005 165.848L109.082 134.464L129.865 103.08L150.648 134.743Z" fill="#F37880"/>
<path d="M189.144 78.112L168.361 109.217L147.578 77.9726L168.222 46.4492L189.144 78.112Z" fill="#F37880"/>
<path d="M189.144 184.4L168.361 215.645L147.578 184.261L168.222 152.877L189.144 184.4Z" fill="#F37880"/>
<path d="M189.144 290.825L168.361 321.93L147.578 290.685L168.222 259.162L189.144 290.825Z" fill="#F37880"/>
<path d="M237.54 306.028L228.334 319.977L218.988 306.028L228.194 292.08L237.54 306.028Z" fill="#F37880"/>
<path d="M43.9392 63.6046L34.7333 77.553L25.5273 63.6046L34.7333 49.6562L43.9392 63.6046Z" fill="#F37880"/>
</svg>

<svg width="254" height="371" fill="none" xmlns="http://www.w3.org/2000/svg"><path d="M254 370.888H8.787L0 .418 254 0v370.888z" fill="#FEF1F0"/><path d="M27.477 11.856l-.418 6.975 14.227-.977-10.74 25.247 6.137 1.813 11.856-28.036-.558-5.161-20.504.14zM235.309 359.032l.419-6.974-14.088.976 10.601-25.246-6.138-1.813-11.716 28.036.418 5.161 20.504-.14zM114.381 81.6l-20.783 31.244L72.676 81.46l20.783-31.384L114.38 81.6zM114.381 188.025L93.598 219.27l-20.922-31.384 20.783-31.384 20.922 31.523zM114.381 294.31l-20.783 31.245-20.922-31.384 20.783-31.384 20.922 31.523zM150.648 134.743l-20.643 31.105-20.923-31.384 20.783-31.384 20.783 31.663zM189.144 78.112l-20.783 31.105-20.783-31.244 20.644-31.524 20.922 31.663zM189.144 184.4l-20.783 31.245-20.783-31.384 20.644-31.384 20.922 31.523zM189.144 290.825l-20.783 31.105-20.783-31.245 20.644-31.523 20.922 31.663zM237.54 306.028l-9.206 13.949-9.346-13.949 9.206-13.948 9.346 13.948zM43.94 63.605l-9.207 13.948-9.206-13.948 9.206-13.949 9.206 13.949z" fill="#F37880"/></svg>
